32x32/devices/i-network-printer.svg

<svg xmlns="http://www.w3.org/2000/svg" width="32" height="32" version="1">
 <g>
  <rect style="opacity:0.2" width="9" height="28" x="-30" y="-30" rx="1.25" ry="1.25" transform="matrix(0,-1,-1,0,0,0)"/>
  <rect style="fill:#8e8e8e" width="9" height="28" x="-29" y="-30" rx="1.25" ry="1.25" transform="matrix(0,-1,-1,0,0,0)"/>
  <path style="opacity:0.5;fill:none;stroke:#000000;stroke-width:1.99919999;stroke-linecap:round" d="m 12,23 -2,3"/>
  <path style="opacity:0.5;fill:none;stroke:#000000;stroke-width:1.99919999;stroke-linecap:round" d="M 9,23 7,26"/>
  <path style="opacity:0.5;fill:none;stroke:#000000;stroke-width:1.99919999;stroke-linecap:round" d="M 6,23 4,26"/>
  <path style="opacity:0.5;fill:none;stroke:#000000;stroke-width:1.99919999;stroke-linecap:round" d="m 15,23 -2,3"/>
  <circle style="opacity:0.2" cx="19.5" cy="23.5" r="1.5"/>
  <circle style="opacity:0.2" cx="23.5" cy="23.5" r="1.5"/>
  <circle style="opacity:0.2" cx="27.5" cy="23.5" r="1.5"/>
  <circle style="fill:#76ff03" cx="19.5" cy="22.5" r="1.5"/>
  <circle style="fill:#ffff00" cx="23.5" cy="22.5" r="1.5"/>
  <circle style="fill:#ffcd40" cx="27.5" cy="22.5" r="1.5"/>
 </g>
 <rect style="opacity:0.2" width="12" height="28" x="-21" y="-30" rx="1.412" ry="1.4" transform="matrix(0,-1,-1,0,0,0)"/>
 <path style="fill:#f4f4f7" d="M 6.375,2 C 5.61325,2 5,2.6371429 5,3.4285714 L 5,12 27,12 27,3.4285714 C 27,2.6371429 26.38675,2 25.625,2 L 6.375,2 Z"/>
 <rect style="fill:#4f4f4f" width="12" height="28" x="-20" y="-30" rx="1.412" ry="1.4" transform="matrix(0,-1,-1,0,0,0)"/>
 <rect style="opacity:0.2" width="24" height="2" x="4" y="15"/>
 <rect style="opacity:0.2" width="3" height="3" x="4" y="11" rx="1.125" ry="1.125"/>
 <rect style="fill:#76ff03" width="3" height="3" x="4" y="10" rx="1.125" ry="1.125"/>
 <path style="opacity:0.2;fill:#f4f4f7" d="M 5.125,10 C 4.50175,10 4,10.50175 4,11.125 v 0.75 C 4,11.91935 4.020447,11.95702 4.025391,12 4.089925,11.438945 4.546097,11 5.1250004,11 h 0.75 c 0.5789034,0 1.0350753,0.438945 1.0996094,1 C 6.979553,11.957021 7,11.919347 7,11.875 v -0.75 C 7,10.50175 6.49825,10 5.875,10 Z"/>
 <path style="opacity:0.1;fill:#f4f4f7" d="M 3.4003906,8 C 2.6247906,8 2,8.629992 2,9.412109 v 1 C 2,9.629992 2.6247906,9 3.4003906,9 H 28.599609 C 29.375209,9 30,9.629992 30,10.412109 v -1 C 30,8.629992 29.375209,8 28.599609,8 Z"/>
 <path style="fill:#f4f4f7;opacity:0.2" d="M 6.375 2 C 5.61325 2 5 2.6363059 5 3.4277344 L 5 4.4277344 C 5 3.6363059 5.61325 3 6.375 3 L 25.625 3 C 26.38675 3 27 3.6363059 27 4.4277344 L 27 3.4277344 C 27 2.6363059 26.38675 2 25.625 2 L 6.375 2 z"/>
</svg>

<svg xmlns="http://www.w3.org/2000/svg" width="32" height="32" version="1"><rect style="opacity:.2" width="9" height="28" x="-30" y="-30" rx="1.25" ry="1.25" transform="matrix(0 -1 -1 0 0 0)"/><rect style="fill:#8e8e8e" width="9" height="28" x="-29" y="-30" rx="1.25" ry="1.25" transform="matrix(0 -1 -1 0 0 0)"/><path style="opacity:.5;fill:none;stroke:#000;stroke-width:1.99919999;stroke-linecap:round" d="m12 23-2 3M9 23l-2 3M6 23l-2 3M15 23l-2 3"/><circle style="opacity:.2" cx="19.5" cy="23.5" r="1.5"/><circle style="opacity:.2" cx="23.5" cy="23.5" r="1.5"/><circle style="opacity:.2" cx="27.5" cy="23.5" r="1.5"/><circle style="fill:#76ff03" cx="19.5" cy="22.5" r="1.5"/><circle style="fill:#ff0" cx="23.5" cy="22.5" r="1.5"/><circle style="fill:#ffcd40" cx="27.5" cy="22.5" r="1.5"/><rect style="opacity:.2" width="12" height="28" x="-21" y="-30" rx="1.412" ry="1.4" transform="matrix(0 -1 -1 0 0 0)"/><path style="fill:#f4f4f7" d="M6.375 2C5.613 2 5 2.637 5 3.429V12h22V3.429C27 2.637 26.387 2 25.625 2H6.375z"/><rect style="fill:#4f4f4f" width="12" height="28" x="-20" y="-30" rx="1.412" ry="1.4" transform="matrix(0 -1 -1 0 0 0)"/><path style="opacity:.2" d="M4 15h24v2H4z"/><rect style="opacity:.2" width="3" height="3" x="4" y="11" rx="1.125" ry="1.125"/><rect style="fill:#76ff03" width="3" height="3" x="4" y="10" rx="1.125" ry="1.125"/><path style="opacity:.2;fill:#f4f4f7" d="M5.125 10C4.502 10 4 10.502 4 11.125v.75c0 .044.02.082.025.125.065-.561.521-1 1.1-1h.75a1.11 1.11 0 0 1 1.1 1c.005-.043.025-.08.025-.125v-.75C7 10.502 6.498 10 5.875 10z"/><path style="opacity:.1;fill:#f4f4f7" d="M3.4 8C2.625 8 2 8.63 2 9.412v1C2 9.63 2.625 9 3.4 9h25.2c.775 0 1.4.63 1.4 1.412v-1C30 8.63 29.375 8 28.6 8z"/><path style="fill:#f4f4f7;opacity:.2" d="M6.375 2C5.613 2 5 2.636 5 3.428v1C5 3.636 5.613 3 6.375 3h19.25C26.387 3 27 3.636 27 4.428v-1C27 2.636 26.387 2 25.625 2H6.375z"/></svg>
